symbols/web/where_to_vote/materialsymbolsoutlined/where_to_vote_wght100gradN25_20px.svg

<svg xmlns="http://www.w3.org/2000/svg" height="20" width="20"><path d="m9.125 10.25 3.354-3.333-.458-.459-2.896 2.896L8.021 8.25l-.438.458ZM10 17q2.604-2.229 4.052-4.573Q15.5 10.083 15.5 8.5q0-2.542-1.583-4.104Q12.333 2.833 10 2.833q-2.333 0-3.906 1.563Q4.521 5.958 4.521 8.5q0 1.583 1.437 3.927Q7.396 14.771 10 17Zm0 .875q-3.083-2.833-4.583-5.177-1.5-2.344-1.5-4.198 0-2.896 1.823-4.583Q7.562 2.229 10 2.229q2.438 0 4.271 1.698 1.833 1.698 1.833 4.573 0 1.854-1.5 4.198-1.5 2.344-4.604 5.177ZM10 8.5Z"/></svg>

<svg xmlns="http://www.w3.org/2000/svg" height="20" width="20"><path d="M9.125 10.25 12.479 6.917 12.021 6.458 9.125 9.354 8.021 8.25 7.583 8.708ZM10 17Q12.604 14.771 14.052 12.427Q15.5 10.083 15.5 8.5Q15.5 5.958 13.917 4.396Q12.333 2.833 10 2.833Q7.667 2.833 6.094 4.396Q4.521 5.958 4.521 8.5Q4.521 10.083 5.958 12.427Q7.396 14.771 10 17ZM10 17.875Q6.917 15.042 5.417 12.698Q3.917 10.354 3.917 8.5Q3.917 5.604 5.74 3.917Q7.562 2.229 10 2.229Q12.438 2.229 14.271 3.927Q16.104 5.625 16.104 8.5Q16.104 10.354 14.604 12.698Q13.104 15.042 10 17.875ZM10 8.5Q10 8.5 10 8.5Q10 8.5 10 8.5Q10 8.5 10 8.5Q10 8.5 10 8.5Q10 8.5 10 8.5Q10 8.5 10 8.5Q10 8.5 10 8.5Q10 8.5 10 8.5Z"/></svg>
